X:1
T:Et ambulant Gentes
T: 
T:Agnus Dei
T:Josquin des Pres (1440 - 1521) 
T:ganassi
T:ganassi
C:B.Resinarius (1485-1544)
Z:ganassi
%%score 1 2
L:1/8
Q:1/2=65
M:2/2
K:Bb
V:1 treble nm="Blokfluit" snm="B."
V:2 treble nm="Blokfluit" snm="B."
V:1
 c4 f4 | e2 c2 d4 | c4 f4 | e4 d4 | z2 c2 d2 f2 | e3 d B2 f2 | e2 c2 d4 | c2 g2 a2 c'2 | %8
 b3 a f2 c'2 | b2 g2 a4 | g4 z2 f2 | g2 e2 f2 d2 | e2 c2 d2 B2 | c2 e2 d4 | c4 z2 B2 | e4 d4 | %16
 z2 c2 f4 | e4 z2 d2 | g4 f4 | z2 e2 _a4 | g4 z2 f2 | b4 a4 | z2 g2 c'4 | b2 g2 a2 f2 | %24
 g2 e2 f2 d2 | c2 c'2 d'2 b2 | c'2 a2 b2 g2 | f4 z2 b2 | c'2 a2 b2 g2 | a2 f2 g4 | z2 f2 g2 e2 | %31
 f4 z2 e2 | f2 d2 e4 | z2 d2 e2 c2 | d4 (3c3 d e2 |[M:6/4][Q:3/4=65] f3 g a2 b4 g2 | %36
 a2 !breath!f4 B4 c2- | cd e2 f2 d4 e2- | ef g2 a2 f4 g2- | ga b2 c'2 !breath!a4 b2- | %40
 bg g2 a2 f4 g2- | ge e2 f2 d4 e2- | ec c2 d2 !breath!B2 f2 g2- | ga b2 c'2 a4 e2 | %44
 g2 b3 a f3 e c2- | !breath!c2 g2 b2 a2 c'3 b | g4 f2 c'2 c2 e2 | d2 f3 e !breath!c4 g2 | %48
 b2 a2 c'2- c'b g4 | f2 c'4 b2 g2 b2 | a2 f2 a2 g6- | g12 |] %52
V:2
 z4 d4 | g4 f2 d2 | e4 d4 | g4 f4 | e4 z2 d2 | e2 g2 f3 e | c2 g2 f2 d2 | e4 d2 a2 | b2 d'2 c'3 a | %9
 g2 d'2 c'2 a2 | b4 a4 | z2 g2 a2 f2 | g2 e2 f2 d2 | e2 c2 d2 f2 | e4 d4 | z2 c2 f4 | e4 z2 d2 | %17
 g4 f4 | z2 e2 _a4 | g4 z2 f2 | b4 a4 | z2 g2 c'4 | b4 z2 a2 | d'4 c'2 a2 | b2 g2 a2 f2 | %25
 g2 e2 d2 d'2 | e'2 c'2 d'2 b2 | c'2 a2 g4 | z2 c'2 d'2 b2 | c'2 a2 b2 g2 | a4 z2 g2 | a2 f2 g4 | %32
 z2 f2 g2 e2 | f4 z2 e2 | f2 d2 e4 |[M:6/4] d3 e f2 g3 a b2 | c'4 a2 b2 g4 | c4 d3 e f2 g2 | %38
 e4 f3 g a2 b2 | g4 a3 b c'2 d'2 | !breath!b4 c'3 a a2 b2 | g4 a3 f f2 g2 | e4 f2- fd d2 e2 | %43
 !breath!c2 g2 a2- ab c'2 d'2 | b4 f2 a2 c'3 b | g3 f !breath!d4 a2 c'2 | b2 d'3 c' a4 g2 | %47
 d'2 d2 f2 e2 g3 f | !breath!d4 a2 c'2 b2 d'2- | d'c' a4 g2 d'4 | c'2 a2 c'2 b6- | b12 |] %52

